**kern	**kern
*staff2	*staff1
*clefG2	*clefG2
*k[]	*k[]
*M3/4	*M3/4
*C:	*C:
=-	=-
4r	4ddd
=43	=43
2g 2b	(8ccc#L
.	8dddJ
.	8eeeL
.	8dddJ
4g# 4b	8cccL
.	8bbJ
=44	=44
2a 2cc	8dddL
.	8cccJ
.	8bbL
.	8aaJ
4a 4cc	8ggL
.	8ff#J
=45	=45
2.f# 2.a	8eeL
.	8ddJ
.	8cc#L
.	8ddJ
.	8eeL
.	8ccJ
=46	=46
4r	8bL
.	8aJ
4d 4f#	8g#L
.	8aJ
4c 4d 4f#	8bL
.	8ccJ)
=47	=47
*^	*
(4B	2.B	(8ddL
.	.	8cc#J
4d	.	8eeL
.	.	8ddJ
[4g	.	8aaL
.	.	8ggJ)
=48	=48	=48
4g]	2.c	(8eeL
.	.	8dd#J
4g#	.	8ff#L
.	.	8eeJ
4a)	.	8ddd#L
.	.	8eeeJ)
=49	=49	=49
4r	2d	(8ccc#L
.	.	8dddJ
(4b	.	8bbL
.	.	8ggJ
4cc)	4d	8ff#L
.	.	8ddJ)
=50	=50	=50
*v	*v	*
4b 4g	4gg
4r 4G	4r
=	=
*-	*-
